X: 14036
T: Franzke's
R: reel
M: 4/4
K: Amajor
|:ae e/e/e efed|cdec dfeg|ae e/e/e efed|cdec B2 (3efg|
ae e/e/e efed|cdec dcBA|B2Bc dcBd|1 fdfa gefg:|2 ecBd cAGA||
B3A BAcA|BAcA BAGA|B3c dBGE|AcBG A2GA|
B3A BAcA|BAcA BAGA|GABc dBGB|AcBG A2GA|
B3A BAcA|dAcA BAGA|BEcE dcBG|EAAG Acdc|
BE E/E/E cE E/E/E|dAcA BAGA|GABc dBGB|AcBG (3ABc (3def||

